X:1
T:Deborah, 11.11.11.11
T:Deborah, 11.11.11.11
T:Charles Hutchinson Gabriel, 1913
T:Public Domain Courtesy of the Cyber Hymnal™
C:Charles Hutchinson Gabriel, 1913
Z:Public Domain
Z:Courtesy of the Cyber Hymnal™
%%score ( 1 2 ) 3
L:1/8
Q:1/4=110
M:4/4
K:Bb
V:1 treble 
V:2 treble 
V:3 bass 
V:1
 [DB]2 [DB]2 [DA]2 [DG]2 | F3 z G F4 | [B,D]2 [DF]2 (GA) (Bc) | [CEFA]6 z2 | %4
 [Ec]2 [Ec]2 [EG]2 [EA]2 | B4 G4 | [C=E]2 [EG]2 [Ec]2 [Ec]2 | [EFAc]6 z2 | [Fd]2 [Fd]2 (cB) (AG) | %9
 [CEFB]4 [CEFA]4 | [Ec]2 [Ec]2 [EG]2 [EA]2 | [DFB]6 z2 | [EGB]2 [EG]2 [EGB]2 [EG]2 | [FB]4 [DF]4 | %14
 [EG]2 [Ge]2 [Fd]2 [Ec]2 | [DB]6 |] %16
V:2
 x8 | D2 D2 (D2 D2) x | x4 D2 D2 | x8 | x8 | (D2 D2) (D2 D2) | x8 | x8 | x4 D2 D2 | x8 | x8 | x8 | %12
 x8 | x8 | x8 | x6 |] %16
V:3
 [B,,F,]2 [B,,F,]2 [B,,F,]2 [B,,F,]2 | [B,,B,]2 [B,,B,]2 ([B,,B,]2 [B,,B,]2) x | %2
 [B,,F,]2 [B,,B,]2 [B,,B,]2 [B,,F,]2 | (C,F,,A,,C,F,E,C,A,,) | %4
 [F,,A,]2 [F,,A,]2 [F,,A,]2 [F,,F,]2 | ([B,,F,]2 [B,,F,]2) ([B,,B,]2 [B,,B,]2) | %6
 [C,B,]2 [C,B,]2 [C,B,]2 [C,B,]2 | (F,F,,A,,C,F,[^F,,^F,][G,,G,][A,,A,]) | %8
 [B,,B,]2 [B,,F,]2 [B,,B,]2 [B,,F,]2 | (C,F,,A,,C,) (F,E,C,A,,) | %10
 [F,,A,]2 [F,,A,]2 [F,,A,]2 [F,,F,]2 | (B,,C,D,F,B,B,,C,D,) | [E,B,]2 [E,B,]2 [E,B,]2 [E,B,]2 | %13
 (D,B,,D,F,) (B,F,D,B,,) | [E,B,]2 [E,B,]2 [F,B,]2 [F,,F,]2 | (B,,G,F,D, B,,2) |] %16

